X:1
T:Title
%%score { ( 1 3 ) | 2 }
L:1/8
Q:1/4=100
M:6/4
K:D
V:1 treble nm="Grand Piano"
V:3 treble 
V:2 bass 
V:1
 [B,D]2 [^A,C]2 [B,D]2 B2 A2 G2 | D2 E2 G2 F6 | [F=c]2 [FB]2 [Fc]2 F2 E2 D2 | =c2 [Fc]2 [Ac]2 B6 | %4
w: James~M.~Black * * * * *||||
 D2 C2 D2 G2 B2 B2 | e2 d2 B2 [FA]6 | [FA]2 [DF]2 [EG]2 [FA]2 [Fd]2 [Fd]2 | %7
w: |||
 [Ec]2 [DB]2 [Ec]2 [Fd]6 | z6 [F=c]6 | B2 B2 B2 B6 | d2 =c2 B2 B2 A2 G2 | G2 F2 G2 [FA]6 | %12
w: |||||
 z6 [F=c]6 | B2 B2 B2 B6 | %14
w: ||
[M:13/8] B2 e2 B2 [EA]2 [EG]3 [^DA]2[Q:1/4=99][Q:1/4=97][Q:1/4=96][Q:1/4=94][Q:1/4=93][Q:1/4=91][Q:1/4=90][Q:1/4=88][Q:1/4=87][Q:1/4=85][Q:1/4=84][Q:1/4=82][Q:1/4=81][Q:1/4=79][Q:1/4=78][Q:1/4=76] | %15
w: |
 B2 B3 A2 [B,G]-[B,G]-[B,G]- [B,G]3 |] %16
w: |
V:2
 [G,,G,]2 [G,,G,]2 [G,,G,]2 [G,D]2 [G,=CD]2 [G,B,D]2 | [G,B,]2 [G,B,D]2 [G,B,D]2 [A,=CD]6 | %2
 [D,A,]2 [D,A,]2 [D,A,]2 [D,A,D]2 [D,G,D]2 [D,F,]2 | [D,F,D]2 [D,A,]2 [D,D]2[K:treble] [G,DG]6 | %4
 [G,B,]2 [G,^A,]2 [G,B,]2 [G,B,D]2 [G,DG]2 [G,DG]2 | [=CG]2 [B,DG]2 [G,DG]2[K:bass] [D,D]6 | %6
 [D,D]2 [D,A,]2 [D,A,]2 [D,D]2 [D,A,]2 [D,A,]2 | [A,,A,]2 [A,,A,]2 [A,,A,]2 [D,A,]6 | %8
 [D,A,]2 [D,A,]2 [D,A,]2 .[D,A,]6 | [G,DG]2 [G,D]2 [G,E]2 [G,D]6 | %10
 [G,B,G]2 [G,EG]2 [G,DG]2 [G,DG]2[K:bass] [G,=CD]2 [G,B,D]2 | [A,C]2 [A,D]2 [A,CE]2 [D,D]6 | %12
 [D,A,]2 [D,A,]2 [D,A,]2 .[D,A,]6 | [G,DG]2 [G,D]2 [G,E]2 [G,D]6 | %14
[M:13/8] [G,DG]2 [G,=CG]2 [G,DG]2[K:bass] [=C,C]2 [C,C]3 [C,G,]2 | %15
 [D,G,D]2 [D,G,D]3 [D,F,=C]2 [G,,G,]-[G,,G,]-[G,,G,]- [G,,G,]3 |] %16
V:3
 x12 | x12 | x12 | x12 | x12 | x12 | x12 | x12 | [F=c]2 [Ec]2 [Dc]2 z4 D2 | x12 | x12 | x12 | %12
 [F=c]2 [Ec]2 [Dc]2 z4 D2 | x12 |[M:13/8] x13 | x13 |] %16

